                               oooooooo                     oooooooo
                             oo........oo                 oo........oo
                            o............o               o............o
                           o..............o             o..............o
                           o..............o             o..............o
                           o..............o             o..............o
                           o..............o   ooooooo   o..............o
                            o..............ooo.......ooo..............o
                             o........................................o
                              o......................................o
                               o............IIIIIIIIII..............o
                                o........IIIIIIIIIIIIIIII...........o
                                 o.....IIIIIIII....IIIIIIII........o
                                 o....IIIIIIII......IIIIIIII.......o
                                 o....IIIIIIII......IIIIIIII.......o
                                 o....IIIIIIII......IIIIIIII.......o
                                 o.....IIIIIIII....IIIIIIII........o
                                  o......IIIIIIIIIIIIIIII.........o
                                   o.............................o
                                   o..............XXXXXXX........o
          XXXXXXXX                  o...........XXX.....XXX......o                   X
        XXXwwwwwXXX                 o..........XX.........XX.....o                XwX X
      XX     XwwwwX  X              o............................o             XwwXXX.X
    XwX  XwX  XwwwwwwwX X           o..............XXXXXXX.......o          XwwwwwwwwX
   XwwX  XwwXXXwwwwwwwwwX            o...........XXXXX...XXXXX...o       XwwwwwwwwwwwX
  XwwwX XwwwwwwwwwwwwwwwwX           XXXXXO...XXXXXXXXwXXXXXXXX...OXXXXX XwwwwwwwwwwwwX
 XwwwwX XwwwwwwwwwwwwwwwwXXXXX  XXXXXXwwwwwwwwwwwwwwwwwwwwwwwwwwwwwwwwwwwwwwwwwwwwwwX
XXXXwwXXXXwwwwwwwwwwwwwwwwwwwwwwwwwwwwwwwwwwwwwwwwwwwwwwwwwwwwwwwwwwwwwwwwwwwwwwwwwwX
  X  XwwwwwwwwwwwwwwwwwwwwwwwwwwwwwwwwwwwwwwwwwwwwwwwwwwwwwwwwwwwwwwwwwwwwwwwwwwwwwwX
      XwwwwwwwwwwwwwwwwwwwwwwwwwwwwwwwwwwwwwwwwwwwwwwwwwwwwwwwwwwwwwwwwwwwwwwwwwwwwwX
        XXXXXXXwwwwwwwwwwwwwwwwwwwwwwwwwwIIIIIIIIIIIIwwwwwwwwwwwwwwwwwwwwwwwwXXXXXwwwX
             XwwwwwwwwwwwwwwwwwwwwwwwwIIIIIIIIIIIIIIIIIIwwwwwwwwwwwwwwwwwwwX XwwwwX XwwX
           XXXwwwwwwwwwwwwwwwwwwwwwwXIIIIIIIIIIIIIIIIIIIIXwwwwwwwwwwwwXXXXX  XwX
            XXXXwwwwXXXwwXwwwwwwwwXIIIIIIIIIIIIIIIIIIIIIIIIXwwwwwwXXXXXX
                XwX    XX  XwwwXIIIIIIIIIIIIIIIIIIIIIIIIIIII     Y<<IIII<<Y
                XwX        XXXXXIIIIIIIIIIIIIIIIIIIIIIIIIIII      Y<<<<<<<<Y
                 X             IIIIIIIIIIIIIIIIIIIIIIIIIIII        Y<<<<<<<<Y
                              IIIIIIIIIIIIIIIIIIIIIIIIIIIIII        Y<<<<<<<<<<Y
                              IIIIIIIIIIIIIIIIIIIIIIIIIIIIII          Y<<<<<<<<<<Y
                              IIIIIIIIII      IIIIIIIIIIIIII            Y<<<<<<<<Y
                              IIIIIIII          IIIIIIIIIII               Y<<<<<<Y
                              IIIIIII            IIIIIIII                  Y<<<<Y
                              IIIII                IIIII                     Y<<Y
                              IIII                  IIII                       Y
                               II                    II
